public/images/icons/32x32/nouveautes_32_purple.svg

<?xml version="1.0" encoding="UTF-8"?>
<svg width="32px" height="32px" viewBox="0 0 32 32" version="1.1" xmlns="http://www.w3.org/2000/svg" xmlns:xlink="http://www.w3.org/1999/xlink">
    <title>icone/32x32/new_32_purple</title>
    <g id="icone/32x32/new_32_purple" stroke="none" stroke-width="1" fill="none" fill-rule="evenodd">
        <g id="004-sticker" transform="translate(5.000000, 4.000000)" fill="#1E1169">
            <g id="Group-4">
                <path d="M11.4887234,4.8 C7.66766739,4.8 4.56219539,7.905472 4.56219539,11.726528 C4.56219539,15.542528 7.66766739,18.652736 11.4887234,18.652736 C15.3094594,18.652736 18.4149314,15.542528 18.4149314,11.726528 C18.4149314,7.905472 15.3094594,4.8 11.4887234,4.8 Z M11.4887234,17.476736 C8.32072339,17.476736 5.73819539,14.899264 5.73819539,11.726528 C5.73819539,8.558528 8.31566739,5.976 11.4887234,5.976 C14.6614594,5.976 17.2389314,8.558528 17.2389314,11.726528 C17.2389314,14.894528 14.6567234,17.476736 11.4887234,17.476736 Z" id="Fill-1"></path>
                <path d="M22.1876674,12.100736 C21.9909314,11.832 21.9861954,11.462528 22.1829314,11.188736 L22.5909314,10.608 C22.9127234,10.152 23.0276674,9.576 22.8981954,9.028736 C22.7687234,8.481472 22.4134594,8.016 21.9189314,7.752 L21.2949314,7.416 C20.9974594,7.257472 20.8389314,6.931264 20.8916674,6.6 L21.0116674,5.899264 C21.1029314,5.347264 20.9541954,4.780736 20.6036674,4.344 C20.2487234,3.907264 19.7254594,3.643264 19.1687234,3.619264 L18.4581954,3.590528 C18.1221954,3.576 17.8341954,3.350528 17.7429314,3.028736 L17.5367234,2.352 C17.2967234,1.521472 16.5236674,0.940736 15.6549314,0.940736 C15.3909314,0.940736 15.1269314,0.993472 14.8821954,1.099264 L14.2294594,1.377472 C13.9269314,1.507264 13.5574594,1.425472 13.3414594,1.180736 L12.8661954,0.652736 C12.4967234,0.24 11.9636674,0 11.4116674,0 C10.8454594,0 10.3076674,0.244736 9.93345939,0.672 L9.47272339,1.209472 C9.25672339,1.459264 8.89166739,1.545472 8.58472339,1.420736 L7.92693139,1.152 C7.68693139,1.056 7.43745939,1.003264 7.18293139,1.003264 C6.30472339,1.003264 5.52693139,1.593472 5.29672339,2.443264 L5.10945939,3.129472 C5.02293139,3.451264 4.73493139,3.681472 4.39893139,3.700736 L3.69345939,3.744 C3.13672339,3.772736 2.61345939,4.046528 2.26766739,4.488 C1.92219539,4.929472 1.78293139,5.500736 1.88366739,6.048 L2.01345939,6.744 C2.07566739,7.075264 1.91745939,7.406528 1.62472339,7.569472 L1.00545939,7.915264 C0.515667393,8.188736 0.165459393,8.659264 0.0454593927,9.206528 C-0.0745406073,9.753472 0.0454593927,10.329472 0.376723393,10.780736 L0.794195393,11.352 C0.990931393,11.620736 0.995667393,11.990528 0.798931393,12.264 L0.390931393,12.844736 C0.0694593927,13.300736 -0.0458046073,13.876736 0.0836673927,14.424 C0.213459393,14.971264 0.568723393,15.436736 1.06293139,15.700736 L1.68693139,16.036736 C1.98472339,16.195264 2.14293139,16.521472 2.09019539,16.852736 L1.97019539,17.553472 C1.87893139,18.105472 2.02766739,18.672 2.37819539,19.108736 C2.73345939,19.545472 3.25672339,19.809472 3.81345939,19.833472 L4.52366739,19.862528 C4.85966739,19.876736 5.14766739,20.102528 5.23893139,20.424 L5.43566739,21.105472 C5.67566739,21.936 6.44872339,22.516736 7.31745939,22.516736 C7.58145939,22.516736 7.84545939,22.464 8.09019539,22.358528 L8.74293139,22.08 C9.04545939,21.950528 9.41493139,22.032 9.63093139,22.276736 L10.1061954,22.804736 C10.4756674,23.217472 11.0087234,23.457472 11.5607234,23.457472 C12.1269314,23.457472 12.6647234,23.212736 13.0389314,22.785472 L13.5047234,22.248 C13.7207234,21.998528 14.0854594,21.912 14.3927234,22.036736 L15.0501954,22.305472 C15.2901954,22.401472 15.5396674,22.454528 15.7941954,22.454528 C16.6727234,22.454528 17.4501954,21.864 17.6807234,21.014528 L17.8676674,20.328 C17.9541954,20.006528 18.2421954,19.776 18.5781954,19.756736 L19.2887234,19.713472 C19.8501954,19.68 20.3687234,19.411264 20.7141954,18.969472 C21.0596674,18.528 21.1989314,17.961472 21.0981954,17.409472 L20.9687234,16.713472 C20.9061954,16.382528 21.0647234,16.051264 21.3574594,15.888 L21.9767234,15.542528 C22.4661954,15.268736 22.8167234,14.798528 22.9367234,14.251264 C23.0567234,13.704 22.9367234,13.128 22.6054594,12.676736 L22.1876674,12.100736 Z M21.7894594,13.996736 C21.7414594,14.217472 21.6021954,14.4 21.4054594,14.510528 L20.7861954,14.856 C20.0516674,15.264 19.6581954,16.094528 19.8116674,16.92 L19.9414594,17.616 C19.9847234,17.841472 19.9269314,18.062528 19.7876674,18.24 C19.6487234,18.417472 19.4469314,18.523264 19.2167234,18.537472 L18.5109314,18.580736 C17.6709314,18.628736 16.9556674,19.204736 16.7349314,20.016 L16.5476674,20.697472 C16.4567234,21.038528 16.1447234,21.273472 15.7941954,21.273472 C15.6934594,21.273472 15.5927234,21.254528 15.4967234,21.216 L14.8389314,20.947264 C14.5989314,20.851264 14.3494594,20.798528 14.0949314,20.798528 C13.5287234,20.798528 12.9909314,21.043264 12.6167234,21.470528 L12.1509314,22.003264 C12.0021954,22.176 11.7909314,22.272 11.5607234,22.272 C11.3349314,22.272 11.1287234,22.180736 10.9796674,22.012736 L10.5047234,21.484736 C10.1349314,21.072 9.60219539,20.832 9.04545939,20.832 C8.77672339,20.832 8.51745939,20.884736 8.27272339,20.990528 L7.61966739,21.268736 C7.51893139,21.312 7.41819539,21.331264 7.31272339,21.331264 C6.96693139,21.331264 6.65966739,21.100736 6.56366739,20.769472 L6.36693139,20.088 C6.13166739,19.281472 5.41166739,18.715264 4.57166739,18.676736 L3.86145939,18.648 C3.63566739,18.638528 3.42945939,18.537472 3.29019539,18.36 C3.14619539,18.182528 3.08872339,17.961472 3.12693139,17.740736 L3.24693139,17.04 C3.38619539,16.209472 2.98293139,15.388736 2.23893139,14.990528 L1.61493139,14.654528 C1.41345939,14.548736 1.27419539,14.366528 1.22145939,14.145472 C1.16872339,13.924736 1.21166739,13.699264 1.34619539,13.516736 L1.75419539,12.936 C2.23893139,12.249472 2.23419539,11.332736 1.73493139,10.651264 L1.31745939,10.08 C1.18293139,9.897472 1.13493139,9.672 1.18766739,9.451264 C1.23566739,9.230528 1.37493139,9.048 1.57166739,8.937472 L2.19093139,8.592 C2.92545939,8.184 3.31893139,7.353472 3.16545939,6.528 L3.04072339,5.836736 C2.99745939,5.611264 3.05493139,5.390528 3.19419539,5.212736 C3.33345939,5.035264 3.53493139,4.929472 3.76545939,4.915264 L4.47093139,4.872 C5.31093139,4.824 6.02145939,4.248 6.24693139,3.436736 L6.43419539,2.750528 C6.52545939,2.409472 6.83745939,2.174528 7.18766739,2.174528 C7.28872339,2.174528 7.38945939,2.193472 7.48545939,2.232 L8.14293139,2.500736 C8.38293139,2.596736 8.63272339,2.649472 8.88693139,2.649472 C9.45345939,2.649472 9.99093139,2.404736 10.3654594,1.977472 L10.8309314,1.444736 C10.9796674,1.272 11.1909314,1.176 11.4214594,1.176 C11.6469314,1.176 11.8534594,1.267264 12.0021954,1.435264 L12.4774594,1.963264 C12.8469314,2.376 13.3796674,2.616 13.9367234,2.616 C14.2054594,2.616 14.4647234,2.563264 14.7094594,2.457472 L15.3621954,2.179264 C15.4629314,2.136 15.5636674,2.116736 15.6694594,2.116736 C16.0149314,2.116736 16.3221954,2.347264 16.4181954,2.678528 L16.6149314,3.36 C16.8501954,4.166528 17.5701954,4.732736 18.4101954,4.771264 L19.1207234,4.8 C19.3461954,4.809472 19.5527234,4.910528 19.6967234,5.088 C19.8407234,5.265472 19.8981954,5.486528 19.8596674,5.707264 L19.7396674,6.408 C19.6007234,7.238528 20.0036674,8.059264 20.7476674,8.457472 L21.3716674,8.793472 C21.5734594,8.899264 21.7127234,9.081472 21.7654594,9.302528 C21.8181954,9.523264 21.7749314,9.748736 21.6454594,9.931264 L21.2374594,10.512 C20.7527234,11.198528 20.7574594,12.115264 21.2567234,12.796736 L21.6741954,13.368 C21.7894594,13.550528 21.8374594,13.776 21.7894594,13.996736 Z" id="Fill-3"></path>
            </g>
            <path d="M13.1927234,9.820736 L10.6196674,12.379264 L9.78472339,11.539264 C9.55419539,11.308736 9.18472339,11.308736 8.95419539,11.539264 C8.72366739,11.769472 8.72366739,12.139264 8.94945939,12.369472 L10.2021954,13.627264 C10.3127234,13.737472 10.4614594,13.8 10.6196674,13.8 C10.7734594,13.8 10.9221954,13.737472 11.0327234,13.627264 L14.0229314,10.656 C14.2534594,10.425472 14.2534594,10.056 14.0276674,9.825472 C13.7974594,9.595264 13.4229314,9.595264 13.1927234,9.820736 Z" id="Fill-5"></path>
        </g>
    </g>
</svg>

<svg height="32" viewBox="0 0 32 32" width="32" xmlns="http://www.w3.org/2000/svg"><g fill="#1e1169" fill-rule="evenodd" transform="translate(4 4)"><path d="m11.534528 4.8304c-3.821056 0-6.926528 3.105472-6.926528 6.926528 0 3.816 3.105472 6.926208 6.926528 6.926208 3.820736 0 6.926208-3.110208 6.926208-6.926208 0-3.821056-3.105472-6.926528-6.926208-6.926528zm0 12.676736c-3.168 0-5.750528-2.577472-5.750528-5.750208 0-3.168 2.577472-5.750528 5.750528-5.750528 3.172736 0 5.750208 2.582528 5.750208 5.750528s-2.582208 5.750208-5.750208 5.750208z"/><path d="m22.233472 12.131136c-.196736-.268736-.201472-.638208-.004736-.912l.408-.580736c.321792-.456.436736-1.032.307264-1.579264s-.484736-1.012736-.979264-1.276736l-.624-.336c-.297472-.158528-.456-.484736-.403264-.816l.12-.700736c.091264-.552-.057472-1.118528-.408-1.555264-.354944-.436736-.878208-.700736-1.434944-.724736l-.710528-.028736c-.336-.014528-.624-.24-.715264-.561792l-.206208-.676736c-.24-.830528-1.013056-1.411264-1.881792-1.411264-.264 0-.528.052736-.772736.158528l-.652736.278208c-.302528.129792-.672.048-.888-.196736l-.475264-.528c-.369472-.412736-.902528-.652736-1.454528-.652736-.566208 0-1.104.244736-1.478208.672l-.460736.537472c-.216.249792-.581056.336-.888.211264l-.657792-.268736c-.24-.096-.489472-.148736-.744-.148736-.878208 0-1.656.590208-1.886208 1.44l-.187264.686208c-.086528.321792-.374528.552-.710528.571264l-.705472.043264c-.556736.028736-1.08.302528-1.425792.744-.345472.441472-.484736 1.012736-.384 1.56l.129792.696c.062208.331264-.096.662528-.388736.825472l-.619264.345792c-.489792.273472-.84.744-.96 1.291264-.12.546944 0 1.122944.331264 1.574208l.417472.571264c.196736.268736.201472.638528.004736.912l-.408.580736c-.321472.456-.436736 1.032-.307264 1.579264.129792.547264.485056 1.012736.979264 1.276736l.624.336c.297792.158528.456.484736.403264.816l-.12.700736c-.091264.552.057472 1.118528.408 1.555264.355264.436736.878528.700736 1.435264.724736l.710208.029056c.336.014208.624.24.715264.561472l.196736.681472c.24.830528 1.013056 1.411264 1.881792 1.411264.264 0 .528-.052736.772736-.158208l.652736-.278528c.302528-.129472.672-.048.888.196736l.475264.528c.369472.412736.902528.652736 1.454528.652736.566208 0 1.104-.244736 1.478208-.672l.465792-.537472c.216-.249472.580736-.336.888-.211264l.657472.268736c.24.096.489472.149056.744.149056.878528 0 1.656-.590528 1.886528-1.44l.186944-.686528c.086528-.321472.374528-.552.710528-.571264l.710528-.043264c.561472-.033472 1.08-.302208 1.425472-.744.345472-.441472.484736-1.008.384-1.56l-.129472-.696c-.062528-.330944.096-.662208.388736-.825472l.619264-.345472c.489472-.273792.84-.744.96-1.291264s0-1.123264-.331264-1.574528zm-.398208 1.896c-.048.220736-.187264.403264-.384.513792l-.619264.345472c-.734528.408-1.128 1.238528-.974528 2.064l.129792.696c.043264.225472-.014528.446528-.153792.624-.138944.177472-.340736.283264-.570944.297472l-.705792.043264c-.84.048-1.555264.624-1.776 1.435264l-.187264.681472c-.090944.341056-.402944.576-.753472.576-.100736 0-.201472-.018944-.297472-.057472l-.657792-.268736c-.24-.096-.489472-.148736-.744-.148736-.566208 0-1.104.244736-1.478208.672l-.465792.532736c-.148736.172736-.36.268736-.590208.268736-.225792 0-.432-.091264-.581056-.259264l-.474944-.528c-.369792-.412736-.902528-.652736-1.459264-.652736-.268736 0-.528.052736-.772736.158528l-.653056.278208c-.100736.043264-.201472.062528-.306944.062528-.345792 0-.653056-.230528-.749056-.561792l-.196736-.681472c-.235264-.806528-.955264-1.372736-1.795264-1.411264l-.710208-.028736c-.225792-.009472-.432-.110528-.571264-.288-.144-.177472-.201472-.398528-.163264-.619264l.12-.700736c.139264-.830528-.264-1.651264-1.008-2.049472l-.624-.336c-.201472-.105792-.340736-.288-.393472-.509056-.052736-.220736-.009792-.446208.124736-.628736l.408-.580736c.484736-.686528.48-1.603264-.019264-2.284736l-.417472-.571264c-.134528-.182528-.182528-.408-.129792-.628736.048-.220736.187264-.403264.384-.513792l.619264-.345472c.734528-.408 1.128-1.238528.974528-2.064l-.124736-.691264c-.043264-.225472.014208-.446208.153472-.624.139264-.177472.340736-.283264.571264-.297472l.705472-.043264c.84-.048 1.550528-.624 1.776-1.435264l.187264-.686208c.091264-.341056.403264-.576.753472-.576.101056 0 .201792.018944.297792.057472l.657472.268736c.24.096.489792.148736.744.148736.566528 0 1.104-.244736 1.478528-.672l.465472-.532736c.148736-.172736.36-.268736.590528-.268736.225472 0 .432.091264.580736.259264l.475264.528c.369472.412736.902208.652736 1.459264.652736.268736 0 .528-.052736.772736-.158528l.652736-.278208c.100736-.043264.201472-.062528.307264-.062528.345472 0 .652736.230528.748736.561792l.196736.681472c.235264.806528.955264 1.372736 1.795264 1.411264l.710528.028736c.225472.009472.432.110528.576.288s.201472.398528.162944.619264l-.12.700736c-.138944.830528.264 1.651264 1.008 2.049472l.624.336c.201792.105792.341056.288.393792.509056.052736.220736.009472.446208-.12.628736l-.408.580736c-.484736.686528-.48 1.603264.019264 2.284736l.417472.571264c.115264.182528.163264.408.115264.628736z"/><path d="m13.238528 9.851136-2.573056 2.558528-.834944-.84c-.230528-.230528-.6-.230528-.830528 0-.230528.230208-.230528.6-.004736.830208l1.252736 1.257792c.110528.110208.259264.172736.417472.172736.153792 0 .302528-.062528.413056-.172736l2.990208-2.971264c.230528-.230528.230528-.6.004736-.830528-.230208-.230208-.604736-.230208-.834944-.004736z"/></g></svg>
